X:1
T:Greensleeves (Jig)
C:abc file by Bernard Loffet
L:1/8
Q:302
M:3/8
K:C
zAB|[cA,]z[cA,]|[cA,]d[eA,]|[dG,]B[GG,]|[GG,]A[BD,]|[cF,]A[AF,]|[AF,]B[cF,]|[BE,]E[EE,]|[EE,]A[BA,]|[cA,]z[cA,]|[cA,]d[eA,]|[dG,]B[GG,]|[GG,]A[BD,]|[cF,]B[AF,]| \
[BG,]z[GG,]|[AA,]z[AA,]|[AA,]e[fA,]|[gC,]z[gC,]|[gC,]f[eC,]|[dG,]B[GG,]|[G2G,2][zG,]|[aF,]z[aF,]|[aF,]b[aF,]|[gC,]e[cC,]|[cC,]e[fG,]|[gC,]c[eC,]|[gC,]f[eC,]| \
[dG,]z[BG,]|[GG,]A[BD,]|[cF,]B[AF,]|[BG,]z[GG,]|[AA,]z[AA,]|[A3A,3]| \
Z:Created with TablEdit http://www.tabledit.com/
